X:18008
T:Rochdale Coconut Dance
R:Reel
C:Trad. Morris
O:England; Rochdale
Z:Paul Hardy's Session Tunebook 2022 (see www.paulhardy.net). Creative Commons cc by-nc-sa licenced.
M:4/4
L:1/8
Q:1/4=160
K:G
D2|"Em"EFGF E2 B2|EFGF E2 B2|"Am"c2 Ac "G"B2 G2|"D"AG F2 "Em"E2:|
D2|"G"G2 BB G2 B2|"D"AGFG A2 dd|"G"G2 BB G2 B2|"D"AGFE D2 d2|
"G"G2 BB G2 B2|"D"AGFG A2 dd|"G"BdcB "D7"AcBA|"G"G2 "D"F2 "G"G2|]

